X:334
T:Yon Wild Mossy Mountains
S:Alexander Robertson, Caledonian Museum book 3 p65
M:3/4
L:1/8
Q:1/4=80
K:A Minor
cB |A2 (AB)    (cd)       | e2  e2  ag    |   e2    g<e   d>c  |{e}d4
e>d|c<A A>B     c>d       | e2  e2  a>g   |   e2    dB    e^G  |   A4:|
e>d|c2  c>d    (c3/d//e//)| d2  e2  f2    |  (a>g) (g>f) (f>e) |{e}d4
e>g|a2 (ag/e/) (de/g/)    |Te3   d (cd/e/)|{d}c2    A2    A>G  |   E4
c>d|e2  e2      f>e       | e>d d2 (d/e/f)|   e2   (dc)  (BA)  |{A}B4
c>B|A2 (AB)    (cd)       | e2  e2  a>g   |  Te2   (d>B) (e>^G)|   A4|]

